src/icons/Facebook.svg

<svg width="24" height="24" viewBox="0 0 24 24" fill="none" xmlns="http://www.w3.org/2000/svg">
<path d="M15.2083 5.35032C14.9815 5.35032 14.706 5.46072 14.3819 5.68153C14.0579 5.90234 13.8958 6.23355 13.8958 6.67516V8H17.7361V13.2994H13.8958V24H8.84028V13.2994H5V8H8.84028V5.35032C8.84028 4.67091 8.98611 4.00849 9.27778 3.36306C9.56944 2.71762 9.98264 2.14862 10.5174 1.65605C11.0521 1.16348 11.6759 0.764331 12.3889 0.458599C13.1019 0.152866 13.8796 0 14.7222 0H19V5.35032H15.2083Z" fill="#FCF9F9"/>
</svg>

<svg width="24" height="24" fill="none" xmlns="http://www.w3.org/2000/svg"><path d="M15.208 5.35c-.226 0-.502.11-.826.332-.324.22-.486.552-.486.993V8h3.84v5.3h-3.84V24H8.84V13.3H5V8h3.84V5.35c0-.68.146-1.342.438-1.987a5.231 5.231 0 0 1 1.24-1.707 6.537 6.537 0 0 1 1.87-1.197A5.858 5.858 0 0 1 14.723 0H19v5.35h-3.792z" fill="#FCF9F9"/></svg>
